X: 1
T:Ca' the Wethers to the Hill
M:4/4
L:1/8
R:Strathspey
K:A
B|"A"A<aa>g "D"f>e"A"a<c|(3Aaa a>c "E"B>cd>B|"A"A<aa>g "D"f>e"A"a>c|"D"d
<fe>c "E"B2 "A"A:|
f|"A"e<Ae>c A/A/A e>c|"D"d>fe>c "E"B>cd<b|"A"e<Ae>c A/A/A e>c|"D"d>fe>c
"E"B2 A>f|
"A"e<Ae>c A/A/A e>c|"D"d>fe>c "E"B>cd<B|"A"A<a"E"g<B "D"f>a "A"e>c|"D"d<
fe>c "E"B2 "A"A||
